lib/image/benteng.svg

<?xml version="1.0" encoding="UTF-8" standalone="no"?>
<svg
   version="1.1"
   id="svg8"
   sodipodi:docname="benteng.svg"
   width="204.545"
   height="204.545"
   inkscape:export-filename="benteng.png"
   inkscape:export-xdpi="96"
   inkscape:export-ydpi="96"
   inkscape:version="1.2.2 (b0a8486541, 2022-12-01)"
   xmlns:inkscape="http://www.inkscape.org/namespaces/inkscape"
   xmlns:sodipodi="http://sodipodi.sourceforge.net/DTD/sodipodi-0.dtd"
   xmlns="http://www.w3.org/2000/svg"
   xmlns:svg="http://www.w3.org/2000/svg">
  <sodipodi:namedview
     id="namedview10"
     pagecolor="#ffffff"
     bordercolor="#000000"
     borderopacity="0.25"
     inkscape:showpageshadow="2"
     inkscape:pageopacity="0.0"
     inkscape:pagecheckerboard="0"
     inkscape:deskcolor="#d1d1d1"
     showgrid="false"
     inkscape:zoom="4.3466667"
     inkscape:cx="35.88957"
     inkscape:cy="163.68865"
     inkscape:window-width="1920"
     inkscape:window-height="1056"
     inkscape:window-x="0"
     inkscape:window-y="0"
     inkscape:window-maximized="1"
     inkscape:current-layer="svg8" />
  <defs
     id="defs2" />
  <g
     id="g6"
     transform="matrix(3.4090909,0,0,3.4090909,102.2725,95.454317)"
     style="fill:#ffffff;fill-opacity:1">
    <path
       stroke="none"
       fill="#ffffff"
       d="m -17,17.45 h 0.05 q 0.15,-1.3 1.1,-2.3 Q -14.65,14 -13,14 h 1 V -6.15 l -6.4,-6.4 Q -19,-13.15 -19,-14 v -12 q 0,-0.85 0.6,-1.4 0.55,-0.6 1.4,-0.6 h 6 q 0.85,0 1.45,0.6 0.55,0.55 0.55,1.4 v 6 h 4 v -6 q 0,-0.85 0.6,-1.4 0.55,-0.6 1.4,-0.6 h 6 q 0.85,0 1.45,0.6 Q 5,-26.85 5,-26 v 6 h 4 v -6 q 0,-0.85 0.6,-1.4 0.55,-0.6 1.4,-0.6 h 6 q 0.85,0 1.45,0.6 0.55,0.55 0.55,1.4 v 12 q 0,0.85 -0.55,1.45 L 12,-6.1 V 14 h 1 q 1.65,0 2.8,1.15 1,1 1.2,2.3 V 21 H -17 V 17.45 M 18,32 h -36 q -1.65,0 -2.85,-1.2 Q -22,29.65 -22,28 v -2.55 h 0.05 q 0.15,-1.3 1.1,-2.3 l 0.2,-0.15 h 41.3 l 0.15,0.15 q 1,1 1.2,2.3 V 28 q 0,1.65 -1.2,2.8 Q 19.65,32 18,32"
       id="path4"
       style="fill:#ffffff;fill-opacity:1" />
  </g>
</svg>

<svg xmlns="http://www.w3.org/2000/svg" xmlns:xlink="http://www.w3.org/1999/xlink">
  <defs/>
  <g>
    <path stroke="none" fill="#FFFFFF" d="M-17 17.45 L-16.95 17.45 Q-16.8 16.15 -15.85 15.15 -14.65 14 -13 14 L-12 14 -12 -6.15 -18.4 -12.55 Q-19 -13.15 -19 -14 L-19 -26 Q-19 -26.85 -18.4 -27.4 -17.85 -28 -17 -28 L-11 -28 Q-10.15 -28 -9.55 -27.4 -9 -26.85 -9 -26 L-9 -20 -5 -20 -5 -26 Q-5 -26.85 -4.4 -27.4 -3.85 -28 -3 -28 L3 -28 Q3.85 -28 4.45 -27.4 5 -26.85 5 -26 L5 -20 9 -20 9 -26 Q9 -26.85 9.6 -27.4 10.15 -28 11 -28 L17 -28 Q17.85 -28 18.45 -27.4 19 -26.85 19 -26 L19 -14 Q19 -13.15 18.45 -12.55 L12 -6.1 12 14 13 14 Q14.65 14 15.8 15.15 16.8 16.15 17 17.45 L17 21 -17 21 -17 17.45 M18 32 L-18 32 Q-19.65 32 -20.85 30.8 -22 29.65 -22 28 L-22 25.45 -21.95 25.45 Q-21.8 24.15 -20.85 23.15 L-20.65 23 20.65 23 20.8 23.15 Q21.8 24.15 22 25.45 L22 28 Q22 29.65 20.8 30.8 19.65 32 18 32"/>
  </g>
</svg>
